X: 10290
T: Doherty's Quare
R: waltz
M: 3/4
K: Bminor
F2|:B3 ^A B c|d3 c d e|f b ^a b a b|f6|f2 =f2 ^f2|c6|
f2 e2 d2|B4 F2|B3 ^A B c|d3 c d e|f b ^a b a b|f6|
f2 =f2 ^f2|g4 f2|B2 ^A B c d|1 B4 F2:|2 B4 ^g2||
K:E
a3 a g2|b a f2 =d2|c2 a2 a2|c2 a2 ^a2|b3 b ^a2|c' b g2 e2|
d2 b2 b2|d2 b2 ^a2|a3 a g2|b a f2 =d2|c2 a2 a2|c2 a2 a2|
B2 =g2 g2|A2 f2 =g2|e2 d e f =g|1 e4 g2:|2 e4 F2||

